collections/assainissement/svg_nb/ASS_STEU.svg

<?xml version="1.0" encoding="UTF-8"?>
<svg id="svg9" width="100" height="100" version="1.1" xmlns="http://www.w3.org/2000/svg" xmlns:cc="http://creativecommons.org/ns#" xmlns:dc="http://purl.org/dc/elements/1.1/" xmlns:rdf="http://www.w3.org/1999/02/22-rdf-syntax-ns#">
 <metadata id="metadata829">
  <rdf:RDF>
   <cc:Work rdf:about="">
    <dc:format>image/svg+xml</dc:format>
    <dc:type rdf:resource="http://purl.org/dc/dcmitype/StillImage"/>
    <cc:license rdf:resource="http://creativecommons.org/licenses/by-sa/4.0/"/>
    <dc:creator>
     <cc:Agent>
      <dc:title>ASTEE</dc:title>
     </cc:Agent>
    </dc:creator>
    <dc:contributor>
     <cc:Agent>
      <dc:title>ASTEE; Le Grand Lyon</dc:title>
     </cc:Agent>
    </dc:contributor>
    <dc:language>FR</dc:language>
    <dc:subject>
     <rdf:Bag>
      <rdf:li>eau</rdf:li>
      <rdf:li>potable</rdf:li>
      <rdf:li>assainissement</rdf:li>
     </rdf:Bag>
    </dc:subject>
    <dc:date/>
   </cc:Work>
   <cc:License rdf:about="http://creativecommons.org/licenses/by-sa/4.0/">
    <cc:permits rdf:resource="http://creativecommons.org/ns#Reproduction"/>
    <cc:permits rdf:resource="http://creativecommons.org/ns#Distribution"/>
    <cc:requires rdf:resource="http://creativecommons.org/ns#Notice"/>
    <cc:requires rdf:resource="http://creativecommons.org/ns#Attribution"/>
    <cc:permits rdf:resource="http://creativecommons.org/ns#DerivativeWorks"/>
    <cc:requires rdf:resource="http://creativecommons.org/ns#ShareAlike"/>
   </cc:License>
  </rdf:RDF>
 </metadata>
 <path id="path3" d="m25.337 1.2675h49.328c13.293 0 24.068 10.778 24.068 24.072v49.326c0 13.293-10.775 24.068-24.068 24.068h-49.328c-13.294 0-24.07-10.776-24.07-24.068v-49.326c0-13.294 10.776-24.072 24.07-24.072z" fill="#fff" stroke="#fff" stroke-width=".265"/>
 <path id="path5" d="m26.371 0.22375c-14.447 0-26.146 11.699-26.146 26.147v47.256c0 14.449 11.698 26.149 26.146 26.149h47.259c14.447 0 26.144-11.699 26.144-26.149v-47.256c0-14.449-11.695-26.147-26.144-26.147zm0 6.221h47.259c12.22 0 19.923 7.7022 19.923 19.925v47.255c0 12.223-7.703 19.928-19.923 19.928h-47.259c-12.221 0-19.924-7.705-19.924-19.928v-47.255c0-12.222 7.7025-19.925 19.924-19.925z"/>
 <path id="path7" d="m13.957 35.94v38.294l0.527 0.965a5.573 5.573 0 0 0 2.604 2.365c0.654 0.29 2.712 0.312 32.821 0.312h32.131l0.944-0.437c1.187-0.53 2.261-1.658 2.716-2.86 0.328-0.855 0.343-1.748 0.343-25.958v-25.069l-0.379-0.51c-0.511-0.69-1.24-1.018-1.985-0.892-0.439 0.09-2.512 1.803-8.393 6.937l-7.809 6.844-0.09-6.408-0.09-6.39-0.51-0.417c-0.675-0.583-1.586-0.746-2.24-0.383-0.293 0.145-3.935 3.258-8.084 6.9l-7.556 6.626-0.09-6.207c-0.07-5.08-0.147-6.281-0.365-6.627-0.382-0.583-1.383-1.002-2.058-0.875-0.418 0.07-2.693 1.967-8.409 6.955l-7.826 6.862-0.21-12.693c-0.565-1.074-1.13-1.083-2.286-1.083 0.218-0.802-13.705 13.75-13.705 13.75zm25.576 21v7.007l-4.679-0.04-4.698-0.05-0.05-6.736c-0.02-3.696 0-6.844 0.05-6.953 0.05-0.182 1.166-0.239 4.733-0.239h4.643v7.012zm18.568 0v7.007h-9.284v-14.018h9.283v7.012zm18.568 0v7.007h-9.285v-14.018h9.284v7.012z"/>
</svg>

<?xml version="1.0" encoding="UTF-8" standalone="no"?>
<svg
   width="100"
   height="100"
   version="1.1"
   id="svg9"
   sodipodi:docname="ASS_STEU.svg"
   inkscape:version="1.1.1 (3bf5ae0d25, 2021-09-20)"
   xmlns:inkscape="http://www.inkscape.org/namespaces/inkscape"
   xmlns:sodipodi="http://sodipodi.sourceforge.net/DTD/sodipodi-0.dtd"
   xmlns="http://www.w3.org/2000/svg"
   xmlns:svg="http://www.w3.org/2000/svg"
   xmlns:rdf="http://www.w3.org/1999/02/22-rdf-syntax-ns#"
   xmlns:cc="http://creativecommons.org/ns#"
   xmlns:dc="http://purl.org/dc/elements/1.1/">
  <defs
     id="defs13" />
  <sodipodi:namedview
     id="namedview11"
     pagecolor="#505050"
     bordercolor="#eeeeee"
     borderopacity="1"
     inkscape:pageshadow="0"
     inkscape:pageopacity="0"
     inkscape:pagecheckerboard="0"
     showgrid="false"
     width="100px"
     inkscape:zoom="4.3048"
     inkscape:cx="45.066"
     inkscape:cy="44.95"
     inkscape:window-width="1598"
     inkscape:window-height="837"
     inkscape:window-x="0"
     inkscape:window-y="0"
     inkscape:window-maximized="1"
     inkscape:current-layer="svg9" />
  <metadata
     id="metadata829">
    <rdf:RDF>
      <cc:Work
         rdf:about="">
        <dc:format>image/svg+xml</dc:format>
        <dc:type
           rdf:resource="http://purl.org/dc/dcmitype/StillImage" />
        <cc:license
           rdf:resource="http://creativecommons.org/licenses/by-sa/4.0/" />
        <dc:creator>
          <cc:Agent>
            <dc:title>ASTEE</dc:title>
          </cc:Agent>
        </dc:creator>
        <dc:contributor>
          <cc:Agent>
            <dc:title>ASTEE; Le Grand Lyon</dc:title>
          </cc:Agent>
        </dc:contributor>
        <dc:language>FR</dc:language>
        <dc:subject>
          <rdf:Bag>
            <rdf:li>eau</rdf:li>
            <rdf:li>potable</rdf:li>
            <rdf:li>assainissement</rdf:li>
          </rdf:Bag>
        </dc:subject>
        <dc:date />
      </cc:Work>
      <cc:License
         rdf:about="http://creativecommons.org/licenses/by-sa/4.0/">
        <cc:permits
           rdf:resource="http://creativecommons.org/ns#Reproduction" />
        <cc:permits
           rdf:resource="http://creativecommons.org/ns#Distribution" />
        <cc:requires
           rdf:resource="http://creativecommons.org/ns#Notice" />
        <cc:requires
           rdf:resource="http://creativecommons.org/ns#Attribution" />
        <cc:permits
           rdf:resource="http://creativecommons.org/ns#DerivativeWorks" />
        <cc:requires
           rdf:resource="http://creativecommons.org/ns#ShareAlike" />
      </cc:License>
    </rdf:RDF>
  </metadata>
  <path
     fill="#ffffff"
     fill-opacity="1"
     stroke="#ffffff"
     stroke-width="0.265"
     d="m 25.337,1.2675 h 49.328 c 13.293,0 24.068,10.7775 24.068,24.0715 v 49.326 c 0,13.293 -10.775,24.068 -24.068,24.068 H 25.337 C 12.043,98.733 1.267,87.957 1.267,74.665 V 25.339 c 0,-13.294 10.776,-24.0715 24.07,-24.0715 z"
     id="path3" />
  <path
     fill="#000000"
     d="M 26.371,0.22375 C 11.924,0.22375 0.2255,11.923 0.2255,26.371 v 47.256 c 0,14.449 11.6985,26.149 26.1455,26.149 H 73.63 c 14.447,0 26.144,-11.699 26.144,-26.149 V 26.371 C 99.774,11.922 88.079,0.22375 73.63,0.22375 Z m 0,6.22105 H 73.63 c 12.22,0 19.923,7.7022 19.923,19.9252 v 47.255 c 0,12.223 -7.703,19.928 -19.923,19.928 H 26.371 C 14.15,93.553 6.4465,85.848 6.4465,73.625 V 26.37 C 6.4465,14.148 14.149,6.4448 26.371,6.4448 Z"
     id="path5"
     style="fill:#000000;fill-opacity:1" />
  <path
     fill="#000000"
     d="m 13.957,35.94 v 38.294 l 0.527,0.965 a 5.573,5.573 0 0 0 2.604,2.365 c 0.654,0.29 2.712,0.312 32.821,0.312 H 82.04 l 0.944,-0.437 c 1.187,-0.53 2.261,-1.658 2.716,-2.86 0.328,-0.855 0.343,-1.748 0.343,-25.958 V 23.552 l -0.379,-0.51 c -0.511,-0.69 -1.24,-1.018 -1.985,-0.892 -0.439,0.09 -2.512,1.803 -8.393,6.937 l -7.809,6.844 -0.09,-6.408 -0.09,-6.39 -0.51,-0.417 c -0.675,-0.583 -1.586,-0.746 -2.24,-0.383 -0.293,0.145 -3.935,3.258 -8.084,6.9 l -7.556,6.626 -0.09,-6.207 c -0.07,-5.08 -0.147,-6.281 -0.365,-6.627 -0.382,-0.583 -1.383,-1.002 -2.058,-0.875 -0.418,0.07 -2.693,1.967 -8.409,6.955 l -7.826,6.862 -0.21,-12.693 c -0.565,-1.074 -1.13,-1.083 -2.286,-1.083 0.218,-0.802 -13.705,13.75 -13.705,13.75 z m 25.576,21 v 7.007 l -4.679,-0.04 -4.698,-0.05 -0.05,-6.736 c -0.02,-3.696 0,-6.844 0.05,-6.953 0.05,-0.182 1.166,-0.239 4.733,-0.239 h 4.643 v 7.012 0 z m 18.568,0 v 7.007 H 48.817 V 49.929 H 58.1 v 7.012 z m 18.568,0 v 7.007 H 67.384 V 49.929 h 9.284 v 7.012 z"
     id="path7"
     style="fill:#000000;fill-opacity:1" />
</svg>
